!!!OTL: Folk song Number 23
!!!CNT: Chinese
**kern
*k[b-e-]
*M4/4
=1
4g
4g
(16b-
16g)
8r
8g
8b-
=2
1dd
=3
(8g
8b-)
8g
8r
4g
(8b-
8dd)
=4
4cc
(16cc
16dd
[8cc
2cc)]
!! page 19
=5
4g
4b-
4g
4g
=6
8b-
(8g
8dd
8b-)
4g
(8b-
8dd)
=7
2.cc
8cc
8g
=8
4b-
8cc
8g
(16b-
4..g)
=9
(16b-
8.g)
4r
4r
4r
=10
4g
4b-
4g
4g
=11
8b-
(8g
8dd
8b-)
4g
(8b-
8dd)
=12
2.cc
8cc
8g
=13
4b-
8cc
8g
(16b-
4..g)
=14
(16b-
8.g)
4r
4r
4r
==
*-
!!!PPR: Yin yueh ch'u pan she
!!!OPR: Chung-kuo min ko Chung-kuo yin yueh yen chiu so pien [Chinese folk songs]
!!!OCL: Chung-kuo yin yueh yen chiu so
!!!PPP: Beijing, China
!!!PDT: 1959///
!!!SML: Edward Johnson Library, University of Toronto M1804.C4694C5
!!!PPG: pp.18-19
!!!ENC: David Huron
!!!EMD: Paul von Hippel updated this file in the following ways (1998/9/29/):
!!!EMD:  (1) changed the representation of slurs from curly braces to parentheses 
!!!EMD:  (2) changed freeform comments into reference records and tandem interpretations
!!!EMD:  (3) corrected the author, title, author, and call number of the printed source 
!!!EEV: Version 2.0
